packages/trader/src/Assets/SvgComponents/settings/poa_poi_inform.svg

<svg width="128" height="128" viewBox="0 0 128 128" fill="none" xmlns="http://www.w3.org/2000/svg">
<path d="M100 8H18C12.4772 8 8 12.4772 8 18V100C8 105.523 12.4772 110 18 110H100C105.523 110 110 105.523 110 100V18C110 12.4772 105.523 8 100 8Z" fill="#E0F0F0"/>
<path d="M58.8291 71.9995C74.9614 71.9995 88.0391 58.9083 88.0391 42.7595C88.0391 26.6107 74.9614 13.5195 58.8291 13.5195C42.6969 13.5195 29.6191 26.6107 29.6191 42.7595C29.6191 58.9083 42.6969 71.9995 58.8291 71.9995Z" fill="#F5F5F5"/>
<path d="M58.8305 67.6306C72.5547 67.6306 83.6805 56.4959 83.6805 42.7606C83.6805 29.0253 72.5547 17.8906 58.8305 17.8906C45.1062 17.8906 33.9805 29.0253 33.9805 42.7606C33.9805 56.4959 45.1062 67.6306 58.8305 67.6306Z" fill="white"/>
<path d="M58.9105 43.1495C64.1185 43.1495 68.3405 38.9231 68.3405 33.7095C68.3405 28.496 64.1185 24.2695 58.9105 24.2695C53.7024 24.2695 49.4805 28.496 49.4805 33.7095C49.4805 38.9231 53.7024 43.1495 58.9105 43.1495Z" fill="#84ABAE"/>
<path d="M51.3199 43.5391C51.3199 43.5391 53.3899 46.2291 58.9099 46.2291C64.4299 46.2291 66.2099 43.5391 66.2099 43.5391C66.2099 43.5391 74.6599 46.7891 74.6599 55.6591C74.6599 55.6591 70.2799 62.1091 59.1399 62.1091C47.9999 62.1091 42.9199 55.6591 42.9199 55.6591C42.9199 55.6591 43.2399 46.0991 51.3199 43.5391Z" fill="#84ABAE"/>
<path d="M87 93H31C29.3431 93 28 94.3431 28 96C28 97.6569 29.3431 99 31 99H87C88.6569 99 90 97.6569 90 96C90 94.3431 88.6569 93 87 93Z" fill="white"/>
<path d="M87 81H31C29.3431 81 28 82.3431 28 84C28 85.6569 29.3431 87 31 87H87C88.6569 87 90 85.6569 90 84C90 82.3431 88.6569 81 87 81Z" fill="white"/>
<path d="M99 120C110.598 120 120 110.598 120 99C120 87.402 110.598 78 99 78C87.402 78 78 87.402 78 99C78 110.598 87.402 120 99 120Z" fill="#FF6444"/>
<path fill-rule="evenodd" clip-rule="evenodd" d="M110.43 98.2175L100.402 87.6033C100.022 87.2011 99.5549 87 99.0001 87C98.4353 87 97.973 87.2011 97.6136 87.6033L87.5853 98.2175C87.195 98.6305 87 99.1253 87 99.7014C87 100.267 87.1953 100.756 87.5853 101.169L88.7405 102.391C89.1103 102.804 89.5725 103.011 90.127 103.011C90.6815 103.011 91.1436 102.804 91.5135 102.391L96.0424 97.6142V109.093C96.0424 109.657 96.2348 110.117 96.62 110.47C97.0052 110.824 97.4699 111 98.014 111H99.9858C100.53 111 100.995 110.824 101.38 110.47C101.765 110.117 101.958 109.657 101.958 109.093V97.6143L106.487 102.391C106.856 102.804 107.318 103.011 107.873 103.011C108.417 103.011 108.885 102.804 109.275 102.391L110.43 101.169C110.81 100.745 111 100.256 111 99.7015C111 99.1362 110.81 98.6416 110.43 98.2175Z" fill="white"/>
</svg>

<svg width="128" height="128" fill="none" xmlns="http://www.w3.org/2000/svg"><path d="M100 8H18C12.477 8 8 12.477 8 18v82c0 5.523 4.477 10 10 10h82c5.523 0 10-4.477 10-10V18c0-5.523-4.477-10-10-10Z" fill="#E0F0F0"/><path d="M58.83 72c16.131 0 29.21-13.092 29.21-29.24 0-16.15-13.079-29.24-29.21-29.24-16.133 0-29.21 13.09-29.21 29.24C29.62 58.907 42.696 72 58.83 72Z" fill="#F5F5F5"/><path d="M58.83 67.63c13.725 0 24.85-11.134 24.85-24.87 0-13.735-11.125-24.87-24.85-24.87-13.724 0-24.85 11.135-24.85 24.87 0 13.736 11.126 24.87 24.85 24.87Z" fill="var(--fill-color1)"/><path d="M58.91 43.15c5.209 0 9.43-4.227 9.43-9.44 0-5.214-4.222-9.44-9.43-9.44-5.208 0-9.43 4.226-9.43 9.44 0 5.213 4.222 9.44 9.43 9.44ZM51.32 43.54s2.07 2.69 7.59 2.69 7.3-2.69 7.3-2.69 8.45 3.25 8.45 12.12c0 0-4.38 6.45-15.52 6.45s-16.22-6.45-16.22-6.45.32-9.56 8.4-12.12Z" fill="#84ABAE"/><path d="M87 93H31a3 3 0 1 0 0 6h56a3 3 0 1 0 0-6ZM87 81H31a3 3 0 1 0 0 6h56a3 3 0 1 0 0-6Z" fill="#fff"/><path d="M99 120c11.598 0 21-9.402 21-21s-9.402-21-21-21-21 9.402-21 21 9.402 21 21 21Z" fill="#FF6444"/><path fill-rule="evenodd" clip-rule="evenodd" d="m110.43 98.218-10.028-10.615A1.853 1.853 0 0 0 99 87c-.565 0-1.027.201-1.386.603L87.585 98.218c-.39.412-.585.907-.585 1.483 0 .566.195 1.055.585 1.468l1.156 1.222c.37.413.832.62 1.386.62.555 0 1.017-.207 1.386-.62l4.53-4.777v11.479c0 .564.192 1.024.577 1.377.385.354.85.53 1.394.53h1.972c.544 0 1.009-.176 1.394-.53.385-.353.578-.813.578-1.377V97.614l4.529 4.777c.369.413.831.62 1.386.62.544 0 1.012-.207 1.402-.62l1.155-1.222c.38-.424.57-.913.57-1.468 0-.565-.19-1.06-.57-1.483Z" fill="#fff"/></svg>
